X: 0109
T: Captain White - 8x32J
P: Mac's Jig
C: Nan Main
B: Miss Milligan's Miscellany v.1 #0109
B: Originally Ours v.1 p.171 #MMM-0109
Z: 2020 John Chambers <jc:trillian.mit.edu> [transposed down from C]
M: 6/8
L: 1/8
R: jig
K: G
%
D |\
"G"[g3d3B3G3] "C"[e3c3G3E3] | "G"ded "D7"cBA | "G"[G3D3B,3] "Em"[B3G3E3B,3] |\
"G"g2G "Am"AcA | "B/G"GBG "C/D7"A2(3d/e/f/ | "G"[g2d2B2G2]d "Am"ecA | "D7"dAF "G"G2 :|
A |\
"Em"[B3G3E3B,3] [G3E3B,3] | "Am"cBA "D"AGF | "G"[d3G3] "B/G"B3 | "C"edc cBA |\
"D7"[f3c3] d3 | "G"g3 "Gdim"e^c^A | "G"dBG "D7"dAF | "G"G3- G2 ||
A |\
"G"B3 g3 | "B"f^dB "F#/B7"B^cd | "Em"e2g e2g | "D"afd def |\
"G"gba g2d | "C"ec'e "D7"d2c | "G"BgB "D7"Agf | "G"g3 g2 |]
